packages/icon/src/svg/service-dropbox.icon.svg

<svg width="24" height="24" viewBox="0 0 24 24" fill="none" xmlns="http://www.w3.org/2000/svg">
<path fill-rule="evenodd" clip-rule="evenodd" d="M7.68005 2.5L12 6.09009L16.3199 2.5L22.5 6.5L18.23 9.93994L22.5 13.3601L16.3199 17.3899L12 13.78L7.68005 17.3899L1.5 13.3601L5.77002 9.93994L1.5 6.5L7.68005 2.5ZM12 14.5601L16.35 18.1602L18.2 16.95V18.3L12 22L5.81995 18.3V16.95L7.67993 18.1602L12 14.5601ZM18.13 9.93994L12 13.6799L5.87 9.93994L12 6.18994L18.13 9.93994Z" fill="white"/>
</svg>

<svg aria-label="service dropbox icon" viewBox="0 0 24 24"><path fill-rule="evenodd" clip-rule="evenodd" d="M7.68 2.5L12 6.09l4.32-3.59 6.18 4-4.27 3.44 4.27 3.42-6.18 4.03L12 13.78l-4.32 3.61-6.18-4.03 4.27-3.42L1.5 6.5l6.18-4zM12 14.56l4.35 3.6 1.85-1.21v1.35L12 22l-6.18-3.7v-1.35l1.86 1.21 4.32-3.6zm6.13-4.62L12 13.68 5.87 9.94 12 6.19l6.13 3.75z"/></svg>
